modules/coreui-icons-free/icons/screen-desktop.svg

<!-- Generated by IcoMoon.io -->
<svg version="1.1" xmlns="http://www.w3.org/2000/svg" width="24" height="24" viewBox="0 0 24 24">
<title>screen-desktop</title>
<path d="M22.125 2.25h-20.25c-0.621 0.001-1.124 0.504-1.125 1.125v13.875c0.001 0.621 0.504 1.124 1.125 1.125h9.375v3.375h-3.75v1.5h9v-1.5h-3.75v-3.375h9.375c0.621-0.001 1.124-0.504 1.125-1.125v-13.875c-0.001-0.621-0.504-1.124-1.125-1.125h-0zM21.75 16.875h-19.5v-13.125h19.5z"></path>
</svg>

<svg xmlns="http://www.w3.org/2000/svg" width="24" height="24" viewBox="0 0 24 24"><path d="M22.125 2.25H1.875A1.127 1.127 0 00.75 3.375V17.25a1.127 1.127 0 001.125 1.125h9.375v3.375H7.5v1.5h9v-1.5h-3.75v-3.375h9.375a1.127 1.127 0 001.125-1.125V3.375a1.127 1.127 0 00-1.125-1.125zm-.375 14.625H2.25V3.75h19.5z"/></svg>
